Origami/64x64/apps/mpv.svg

<svg width="64" height="64" version="1" xmlns="http://www.w3.org/2000/svg">
 <path d="m4.050798 32.000828c-0.0118 0.33399-0.050799 0.661981-0.050799 0.999971 4e-7 15.511558 12.487644 27.999201 27.999201 27.999201s27.999201-12.487643 27.999201-27.999201c0-0.33767-0.03904-0.665261-0.05078-0.999971-0.527985 15.041571-12.775635 26.999229-27.949202 26.999229-15.173967 0-27.421217-11.957658-27.949202-26.999229z" style="opacity:.2"/>
 <rect transform="matrix(0,-1,-1,0,0,0)" x="-60" y="-60" width="55.998" height="55.998" rx="27.999" ry="27.999" style="fill:#672168"/>
 <rect transform="matrix(0,-1,-1,0,0,0)" x="-55" y="-54" width="43.999" height="43.999" rx="21.999" ry="21.999" style="opacity:.2"/>
 <rect transform="matrix(0,-1,-1,0,0,0)" x="-54" y="-54" width="43.999" height="43.999" rx="21.999" ry="21.999" style="fill:#a95bd5"/>
 <path d="M 32 4.0019531 C 16.488443 4.0019531 4 16.488443 4 32 C 4 32.113553 4.0112846 32.224036 4.0175781 32.335938 C 4.3691113 17.134615 16.711164 5 32 5 C 47.288836 5 59.630889 17.134615 59.982422 32.335938 C 59.988693 32.224116 60 32.113445 60 32 C 60 16.488443 47.511557 4.0019531 32 4.0019531 z" style="fill:#ffffff;opacity:.1"/>
 <path d="m32 10.001953c-12.187652 0-22 9.810395-22 21.998047 0 0.114211 0.011587 0.225346 0.017578 0.337891 0.348862-11.87793 10.017-21.337891 21.982422-21.337891s21.63356 9.459961 21.982422 21.337891c0.006104-0.112527 0.017578-0.223687 0.017578-0.337891 0-12.187652-9.812348-21.998047-22-21.998047z" style="fill:#ffffff;opacity:.1"/>
 <path d="m25.273392 21.001142a1.2499843 1.3333619 0 0 0 -1.273964 1.333962v21.331391a1.2499843 1.3333619 0 0 0 1.869907 1.158767l17.4979-10.665696a1.2499843 1.3333619 0 0 0 0 -2.317534l-17.4975-10.665695a1.2499843 1.3333619 0 0 0 -0.595983 -0.173995z" style="opacity:.2"/>
 <path d="m25.273392 20.001199a1.2499843 1.3333619 0 0 0 -1.273964 1.333962v21.331391a1.2499843 1.3333619 0 0 0 1.869907 1.158767l17.4979-10.665696a1.2499843 1.3333619 0 0 0 0 -2.317533l-17.4975-10.665696a1.2499843 1.3333619 0 0 0 -0.595983 -0.173995z" style="fill:#e3dfe8"/>
</svg>

<svg xmlns="http://www.w3.org/2000/svg" width="64" height="64" version="1">
 <path style="opacity:0.2" d="m 4.050798,32.000828 c -0.0118,0.33399 -0.050799,0.661981 -0.050799,0.999971 C 3.9999994,48.512357 16.487643,61 31.9992,61 47.510757,61 59.998401,48.512357 59.998401,33.000799 c 0,-0.33767 -0.03904,-0.665261 -0.05078,-0.999971 -0.527985,15.041571 -12.775635,26.999229 -27.949202,26.999229 -15.173967,0 -27.4212171,-11.957658 -27.949202,-26.999229 z"/>
 <rect style="fill:#672168" width="55.998" height="55.998" x="-60" y="-60" rx="27.999" ry="27.999" transform="matrix(0,-1,-1,0,0,0)"/>
 <rect style="opacity:0.2" width="43.999" height="43.999" x="-55" y="-54" rx="21.999" ry="21.999" transform="matrix(0,-1,-1,0,0,0)"/>
 <rect style="fill:#a95bd5" width="43.999" height="43.999" x="-54" y="-54" rx="21.999" ry="21.999" transform="matrix(0,-1,-1,0,0,0)"/>
 <path style="opacity:0.1;fill:#ffffff" d="M 32 4.0019531 C 16.488443 4.0019531 4 16.488443 4 32 C 4 32.113553 4.0112846 32.224036 4.0175781 32.335938 C 4.3691113 17.134615 16.711164 5 32 5 C 47.288836 5 59.630889 17.134615 59.982422 32.335938 C 59.988693 32.224116 60 32.113445 60 32 C 60 16.488443 47.511557 4.0019531 32 4.0019531 z"/>
 <path style="opacity:0.1;fill:#ffffff" d="M 32 10.001953 C 19.812348 10.001953 10 19.812348 10 32 C 10 32.114211 10.011587 32.225346 10.017578 32.337891 C 10.36644 20.459961 20.034578 11 32 11 C 43.965422 11 53.63356 20.459961 53.982422 32.337891 C 53.988526 32.225364 54 32.114204 54 32 C 54 19.812348 44.187652 10.001953 32 10.001953 z"/>
 <path style="opacity:0.2" d="m 25.273392,21.001142 a 1.2499843,1.3333619 0 0 0 -1.273964,1.333962 l 0,21.331391 a 1.2499843,1.3333619 0 0 0 1.869907,1.158767 l 17.4979,-10.665696 a 1.2499843,1.3333619 0 0 0 0,-2.317534 l -17.4975,-10.665695 a 1.2499843,1.3333619 0 0 0 -0.595983,-0.173995 z"/>
 <path style="fill:#e3dfe8" d="m 25.273392,20.001199 a 1.2499843,1.3333619 0 0 0 -1.273964,1.333962 l 0,21.331391 a 1.2499843,1.3333619 0 0 0 1.869907,1.158767 l 17.4979,-10.665696 a 1.2499843,1.3333619 0 0 0 0,-2.317533 l -17.4975,-10.665696 a 1.2499843,1.3333619 0 0 0 -0.595983,-0.173995 z"/>
</svg>
